X:1
T:Molly on the Shore
M:C
L:1/8
Q:80
C:
S:Reel
K:HP
:|2 e | \
{g}A3/2{d}A/2{e}A3/2{d}B/2{gef}e2{g}d3/2B/2 | \
{gef}e2{g}d3/2B/2{g}G3/2A/2{g}B/2{d}G3/2 |
{g}A3/2{d}A/2{e}A3/2{d}B/2{g}e3/2d/2{g}e3/2f/2 | \
{a}g3/2e/2{g}d3/2B/2{g}A3/2{d}A/2{e}A:| [ | \
{d}B |
{g}A3/2a/2{g}a3/2g/2{ag}a2e3/2f/2 | \
{a}g3/2e/2{g}d3/2B/2{g}G3/2A/2{g}B/2{d}G3/2 | \
{g}A3/2a/2{g}a3/2g/2{ag}a2e3/2a/2 |
g3/2e/2{g}d3/2B/2{g}A3/2{d}A/2{e}A{d}B/2 | \
{g}A3/2a/2{g}a3/2g/2{ag}a2e3/2f/2 | \
{a}g3/2e/2{g}d3/2B/2{g}G3/2A/2{g}B/2{d}G3/2 |
{g}A3/2{d}A/2{e}A3/2{d}B/2{g}e3/2d/2{g}e3/2f/2 | \
{a}g3/2e/2{g}d3/2B/2{g}A3/2{d}A/2{e}A :|
